!!!OTL: 545a. Festgesang.
!!!COM: Joh. Herm. Stuntz
!!!ARE: Europa, Mitteleuropa, Deutschland
!!!SCT: B0545
!!!TXL: @@DE
!!!YEM: Copyright 1995, estate of Helmut Schaffrath.
**kern	**text
*ICvox	*
*Ivox	*
*clefG2	*
*M4/4	*
*met(c)	*
*k[b-e-]	*
*B-:	*
=1	=1
!LO:TX:a:t=Feurig, mit Würde.	!
{4b-	Tur-
4a	-ner,
4b-	auf
8ddL	ʒum
8ccJ	.
=2	=2
2b-	Strei-
4f	-te!
4r}	.
=3	=3
{4.f	Tre-
8b-	-tet
4a	in
4b-	die
=4	=4
2.cc	Bahn!
4r}	.
=5	=5
{4.dd	Kraft
8cc	und
4b-	Muth
4a	ge-
=6	=6
2.g	-lei-
4a}	-te
=7	=7
{4.cc	uns
8b-	ʒum
4a	Sieg
4g	hin-
=8	=8
1f}	-an.
=9	=9
{4.g	Ja,
8g	ʒu
4g	heh-
4a	-rem
=10	=10
1b-}	Ʒiel
=11	=11
{4.b-	füh-
8cc	-ret
4.cc	un-
8dd	-ſer
=12	=12
1dd}	Spiel,
=13	=13
{4b-	ja,
4f	ʒu
4b-	heh-
4dd	-rem
=14	=14
2ff}	Ʒiel
{4b-	füh-
4ee-	-ret
=15	=15
2dd	un-
2cc	-ſer
=16	=16
2.b-	Spiel.
4r}	.
==	==
!!!AGN: Turner - Lied
!!!GTL: Turnerlieder
!!!ONB: ESAC (Essen Associative Code) Database: BOEHME
!!!AMT: simple quadruple
!!!AIN: vox
!!!EED: Helmut Schaffrath
!!!EEV: 1.0
!!Mel. Joh. Herm. Stunttz
!!@@COMMENT:"Gedicht von Dr. A. H. Weißmann (um 1860)."
!!@@END:
!!!Text: A. H. Weißmann
!!!URL-scan: https://archive.org/details/BoehmeVtLieder1895/page/n433/mode/2up
!!!ENC: Anna Maria Matuszewska
!!!EEV: 2024/11/07
*-	*-
